X:1
T:Title
%%score ( 1 2 ) { 3 | 4 }
L:1/8
Q:1/4=107
M:4/4
K:C
V:1 treble nm="Grand Piano, Soprano"
V:2 treble 
V:3 treble nm="Choir Pad, Bass"
V:4 bass 
V:1
 [CE][DF] [EG]2 [EG]2 [EG][DF] | [CE][DF] [EG]2 [Ge]2 [Ec]2 | [Ec]2 dc BA [FG]2 | [Fd]2 [Ec]6 | %4
w: By~Theodore~Frelinghuysen~Seward * * * * *||||
 [CE][DF] [EG]2 [EG]2 [EG][DF] | [CE][DF] [EG]2 [Ge]2 [Ec]2 | [Ec]2 dc BA [FG]2 | [Fd]2 [Ec]6 | %8
w: ||||
 [Gc]2 [GB]2 [GB]2 [GB][^FA] | [GB][Ac] [Bd]2- [Bd][Ac] [^FA]2 | [^FA]2 [=FA][GB] [Ac][ce] [Bd]2 | %11
w: |||
 [Ac]2 [GB]6 | G2 [GB]2 [GB]2 [GB][^FA] | [GB][Ac] [Bd]2- [Bd][Ac] [^FA]2 | %14
w: |||
 [^FA][GB][Ac][ce] [Bd][Ac] [GB]2 | [^FA]2 G6 | [EG]2 [CE][EG]- [EG]2 [Ec]2- | [Ec][Ge] [Gd]6 | %18
w: ||||
 G2 [Ge][Ec]- [Ec]2 [EG]2- | [EG][CE] [B,D]6 | [CE][DF] [EG]2 [EG]2 [EG][DF] | %21
w: |||
 [CE][DF] [EG]2 [Ge]2 [Ec]2 | [Ec]2 dc BA [FG]2 | [Fd]2 [Ec]6- | [Ec]2 z2 z4 |] %25
w: ||||
V:2
 x8 | x8 | z2 F2 F2 z2 | x8 | x8 | x8 | z2 F2 F2 z2 | x8 | x8 | x8 | x8 | x8 | x8 | x8 | x8 | x8 | %16
 x8 | x8 | x8 | x8 | x8 | x8 | z2 F2 F2 z2 | x8 | x8 |] %25
V:3
 C2 C2 C2 C2 | C2 C2 C2 C2 | C2[K:bass] B,2 B,2 D2 | B,2 C6 | C2 C2 C2 C2 | C2 C2 C2 C2 | %6
 C2[K:bass] B,2 B,2 D2 | B,2 C6 | E2 D2 D2 D2 | D2 D2- DD D2 | D2 D2 D2 D2 | D2 D6 | B,2 D2 D2 D2 | %13
 D2 D2- DD D2 | D2 D2 D2 D2 | C2 B,6 | C2 CC- C2 C2- | CC B,6 | G,2 CC- C2 C2- | CG, G,6 | %20
 C2 C2 C2 C2 | C2 C2 C2 C2 | C2 B,2 B,2 D2 | B,2 C6- | C2 z2 z4 |] %25
V:4
 C,2 C,2 C,2 C,2 | C,2 C,2 C,2 C,2 | C,2 G,2 G,2 G,2 | G,2 C,6 | C,2 C,2 C,2 C,2 | %5
 C,2 C,2 C,2 C,2 | C,2 G,2 G,2 G,2 | G,2 C,6 | C,2 G,2 G,2 G,2 | G,2 D,2- D,D, D,2 | %10
 D,2 D,2 D,2 D,2 | D,2 G,6 | G,2 G,2 G,2 G,2 | G,2 D,2- D,D, D,2 | D,2 D,2 D,2 D,2 | D,2 G,6 | %16
 C,2 C,C,- C,2 C,2- | C,C, G,6 | z2 C,C,- C,2 C,2- | C,E, z2 z4 | C,2 C,2 C,2 C,2 | %21
 C,2 C,2 C,2 C,2 | C,2 G,2 G,2 G,2 | G,2 C,6- | C,2 z2 z4 |] %25

